; generated by Slic3r 1.1.7 on 2014-08-24 at 18:27:20

; "Generated by com.neuronrobotics.replicator.driver.Slic3r.java"

; perimeters extrusion width = 0.40mm
; infill extrusion width = 0.42mm
; solid infill extrusion width = 0.42mm
; top infill extrusion width = 0.42mm
; support material extrusion width = 0.40mm

G21 ; set units to millimeters
M107
M104 S200 ; set temperature
G28 ; home all axes
G1 Z5 F5000 ; lift nozzle

M109 S200 ; wait for temperature to be reached
G90 ; use absolute coordinates
G92 E0
M82 ; use absolute distances for extrusion
G1 F1800.000 E-1.10000
G92 E0
G1 Z0.350 F7800.000
G1 X10.142 Y10.142 F7800.000
G1 E1.10000 F1800.000
G1 X-9.858 Y30.142 E3.71604 F1080.000
G1 X-11.816 Y31.537 E3.93834
G1 X-15.000 Y32.271 E4.24061
G1 X-25.000 Y32.271 E5.16552
G1 X-27.370 Y31.874 E5.38782
G1 X-29.482 Y30.726 E5.61013
G1 X-31.104 Y28.952 E5.83244
G1 X-32.059 Y26.746 E6.05474
G1 X-32.271 Y25.000 E6.21742
G1 X-32.271 Y-25.000 E10.84197
G1 X-31.874 Y-27.370 E11.06427
G1 X-30.726 Y-29.482 E11.28658
G1 X-28.952 Y-31.104 E11.50888
G1 X-26.746 Y-32.059 E11.73119
G1 X-25.000 Y-32.271 E11.89387
G1 X25.000 Y-32.271 E16.51841
G1 X27.370 Y-31.874 E16.74072
G1 X29.482 Y-30.726 E16.96302 F1080.000
G1 X31.104 Y-28.952 E17.18533
G1 X32.059 Y-26.746 E17.40763
G1 X32.271 Y-25.000 E17.57031
G1 X32.271 Y-15.000 E18.49522
G1 X31.874 Y-12.630 E18.71753
G1 X30.142 Y-9.858 E19.01979
G1 X10.184 Y10.099 E21.63028
G1 X9.692 Y9.692 F7800.000
G1 X-10.308 Y29.692 E24.24632 F1080.000
G1 X-12.187 Y31.010 E24.45862
G1 X-15.000 Y31.636 E24.72513
G1 X-25.000 Y31.636 E25.65004
G1 X-27.261 Y31.239 E25.86234
G1 X-29.251 Y30.095 E26.07464
G1 X-30.733 Y28.342 E26.28693
G1 X-31.528 Y26.189 E26.49923
G1 X-31.636 Y25.000 E26.60966
G1 X-31.636 Y-25.000 E31.23420
G1 X-31.239 Y-27.261 E31.44650
G1 X-30.095 Y-29.251 E31.65880
G1 X-28.342 Y-30.733 E31.87109
G1 X-26.189 Y-31.528 E32.08339
G1 X-25.000 Y-31.636 E32.19381
G1 X25.000 Y-31.636 E36.81836
G1 X27.261 Y-31.239 E37.03066
G1 X29.251 Y-30.095 E37.24295 F1080.000
G1 X30.733 Y-28.342 E37.45525
G1 X31.528 Y-26.189 E37.66755
G1 X31.636 Y-25.000 E37.77797
G1 X31.636 Y-15.000 E38.70288
G1 X31.239 Y-12.739 E38.91518
G1 X29.692 Y-10.308 E39.18170
G1 X9.735 Y9.650 E41.79218
G1 F1800.000 E40.69218
G92 E0
G1 X16.514 Y-23.486 F7800.000
G1 E1.10000 F1800.000
G1 X23.486 Y-23.486 E1.74478 F540.000
G1 X23.486 Y-16.514 E2.38955
G1 X16.514 Y-16.514 E3.03433
G1 X16.514 Y-23.426 E3.67356
G1 X17.150 Y-22.850 F7800.000
G1 X22.850 Y-22.850 E4.20075 F378.000
G1 X22.850 Y-17.150 E4.72795
G1 X17.150 Y-17.150 E5.25515
G1 X17.150 Y-22.790 E5.77680
G1 X17.150 Y-23.250 F7800.000
G1 X15.986 Y-23.486 F7800.000
G1 X15.986 Y-16.514 E6.42158 F540.000
G1 X-15.986 Y-16.514 E9.37863
G1 X-15.986 Y-23.486 E10.02340
G1 X15.926 Y-23.486 E12.97490
G1 X15.350 Y-22.850 F7800.000
G1 X15.350 Y-17.150 E13.50210 F378.000
G1 X-15.350 Y-17.150 E16.34157
G1 X-15.350 Y-22.850 E16.86877
G1 X15.290 Y-22.850 E19.70269
G1 X15.750 Y-22.850 F7800.000
G1 X-16.514 Y-23.486 F7800.000
G1 X-16.514 Y-16.514 E20.34747 F540.000
G1 X-23.486 Y-16.514 E20.99225
G1 X-23.486 Y-23.486 E21.63702
G1 X-16.574 Y-23.486 E22.27625
G1 X-17.150 Y-22.850 F7800.000
G1 X-17.150 Y-17.150 E22.80345 F378.000
G1 X-22.850 Y-17.150 E23.33065
G1 X-22.850 Y-22.850 E23.85785
G1 X-17.210 Y-22.850 E24.37949
G1 X-16.750 Y-22.850 F7800.000
G1 X-16.514 Y-15.986 F7800.000
G1 X-16.514 Y15.986 E27.33654 F540.000
G1 X-23.486 Y15.986 E27.98132
G1 X-23.486 Y-15.986 E30.93837
G1 X-16.574 Y-15.986 E31.57760
G1 X-17.150 Y-15.350 F7800.000
G1 X-17.150 Y15.350 E34.41707 F378.000
G1 X-22.850 Y15.350 E34.94427
G1 X-22.850 Y-15.350 E37.78374
G1 X-17.210 Y-15.350 E38.30539
G1 X-16.750 Y-15.350 F7800.000
G1 X-16.514 Y16.514 F7800.000
G1 X-16.514 Y23.486 E38.95017 F540.000
G1 X-23.486 Y23.486 E39.59494
G1 X-23.486 Y16.514 E40.23972
G1 X-16.574 Y16.514 E40.87894
G1 X-17.150 Y17.150 F7800.000
G1 X-17.150 Y22.850 E41.40614 F378.000
G1 X-22.850 Y22.850 E41.93334
G1 X-22.850 Y17.150 E42.46054
G1 X-17.210 Y17.150 E42.98219
G1 X-16.750 Y17.150 F7800.000
G1 X-15.986 Y-15.986 F7800.000
G1 X-15.986 Y24.014 E46.68183 F540.000
G1 X-24.014 Y24.014 E47.42441
G1 X-24.014 Y-24.014 E51.86664
G1 X24.014 Y-24.014 E56.30887
G1 X24.014 Y-15.986 E57.05145
G1 X-15.926 Y-15.986 E60.74554
G1 X-15.350 Y-15.350 F7800.000
G1 X-15.350 Y24.650 E64.44518 F378.000
G1 X-24.650 Y24.650 E65.30535
G1 X-24.650 Y-24.650 E69.86515
G1 X24.650 Y-24.650 E74.42495
G1 X24.650 Y-15.350 E75.28512
G1 X-15.290 Y-15.350 E78.97921
G1 X-15.750 Y-15.350 F7800.000
M106 S157
M104 S190 ; set temperature
G1 F1800.000 E77.87921
G92 E0
G1 Z0.650 F7800.000
G1 X16.500 Y-16.500 F7800.000
G1 E1.10000 F1800.000
G1 X16.500 Y-23.500 E1.44923 F1800.000
G1 X23.500 Y-23.500 E1.79846
G1 X23.500 Y-16.500 E2.14769
G1 X16.560 Y-16.500 E2.49393
G1 X16.900 Y-16.900 F7800.000
G1 X16.900 Y-23.100 E2.80325 F1800.000
G1 X23.100 Y-23.100 E3.11257
G1 X23.100 Y-16.900 E3.42189
G1 X16.960 Y-16.900 E3.72822
G1 X17.300 Y-17.300 F7800.000
G1 X17.300 Y-22.700 E3.99762 F1260.000
G1 X22.700 Y-22.700 E4.26703
G1 X22.700 Y-17.300 E4.53644
G1 X17.360 Y-17.300 E4.80285
G1 X16.900 Y-17.300 F7800.000
G1 X16.000 Y-16.500 F7800.000
G1 X-16.000 Y-16.500 E6.39934 F1800.000
G1 X-16.000 Y-23.500 E6.74857
G1 X16.000 Y-23.500 E8.34506
G1 X16.000 Y-16.560 E8.69129
G1 X15.600 Y-16.900 F7800.000
G1 X-15.600 Y-16.900 E10.24787 F1800.000
G1 X-15.600 Y-23.100 E10.55719
G1 X15.600 Y-23.100 E12.11376
G1 X15.600 Y-16.960 E12.42009
G1 X15.200 Y-17.300 F7800.000
G1 X-15.200 Y-17.300 E13.93675 F1260.000
G1 X-15.200 Y-22.700 E14.20616
G1 X15.200 Y-22.700 E15.72282
G1 X15.200 Y-17.360 E15.98923
G1 X15.200 Y-16.900 F7800.000
G1 X-16.500 Y-16.500 F7800.000
G1 X-23.500 Y-16.500 E16.33846 F1800.000
G1 X-23.500 Y-23.500 E16.68770
G1 X-16.500 Y-23.500 E17.03693
G1 X-16.500 Y-16.560 E17.38317
G1 X-16.900 Y-16.900 F7800.000
G1 X-23.100 Y-16.900 E17.69248 F1800.000
G1 X-23.100 Y-23.100 E18.00180
G1 X-16.900 Y-23.100 E18.31112
G1 X-16.900 Y-16.960 E18.61745
G1 X-17.300 Y-17.300 F7800.000
G1 X-22.700 Y-17.300 E18.88686 F1260.000
G1 X-22.700 Y-22.700 E19.15626
G1 X-17.300 Y-22.700 E19.42567
G1 X-17.300 Y-17.360 E19.69208
G1 X-17.300 Y-16.900 F7800.000
G1 X-16.500 Y-16.000 F7800.000
G1 X-16.500 Y16.000 E21.28857 F1800.000
G1 X-23.500 Y16.000 E21.63780
G1 X-23.500 Y-16.000 E23.23429
G1 X-16.560 Y-16.000 E23.58053
G1 X-16.900 Y-15.600 F7800.000
G1 X-16.900 Y15.600 E25.13710 F1800.000
G1 X-23.100 Y15.600 E25.44642
G1 X-23.100 Y-15.600 E27.00299
G1 X-16.960 Y-15.600 E27.30932
G1 X-17.300 Y-15.200 F7800.000
G1 X-17.300 Y15.200 E28.82598 F1260.000
G1 X-22.700 Y15.200 E29.09539
G1 X-22.700 Y-15.200 E30.61205
G1 X-17.360 Y-15.200 E30.87847
G1 X-16.900 Y-15.200 F7800.000
G1 X-16.500 Y16.500 F7800.000
G1 X-16.500 Y23.500 E31.22770 F1800.000
G1 X-23.500 Y23.500 E31.57693
G1 X-23.500 Y16.500 E31.92616
G1 X-16.560 Y16.500 E32.27240
G1 X-16.900 Y16.900 F7800.000
G1 X-16.900 Y23.100 E32.58172 F1800.000
G1 X-23.100 Y23.100 E32.89104
G1 X-23.100 Y16.900 E33.20036
G1 X-16.960 Y16.900 E33.50668
G1 X-17.300 Y17.300 F7800.000
G1 X-17.300 Y22.700 E33.77609 F1260.000
G1 X-22.700 Y22.700 E34.04550
G1 X-22.700 Y17.300 E34.31490
G1 X-17.360 Y17.300 E34.58132
G1 X-16.900 Y17.300 F7800.000
G1 X-16.000 Y-16.000 F7800.000
G1 X-16.000 Y24.000 E36.57692 F1800.000
G1 X-24.000 Y24.000 E36.97605
G1 X-24.000 Y-24.000 E39.37078
G1 X24.000 Y-24.000 E41.76551
G1 X24.000 Y-16.000 E42.16463
G1 X-15.940 Y-16.000 E44.15724
G1 X-15.600 Y-15.600 F7800.000
G1 X-15.600 Y24.400 E46.15285 F1800.000
G1 X-24.400 Y24.400 E46.59188
G1 X-24.400 Y-24.400 E49.02653
G1 X24.400 Y-24.400 E51.46117
G1 X24.400 Y-15.600 E51.90020
G1 X-15.540 Y-15.600 E53.89282
G1 X-15.200 Y-15.200 F7800.000
G1 X-15.200 Y24.800 E55.88843 F1260.000
G1 X-24.800 Y24.800 E56.36737
G1 X-24.800 Y-24.800 E58.84193
G1 X24.800 Y-24.800 E61.31648
G1 X24.800 Y-15.200 E61.79543
G1 X-15.140 Y-15.200 E63.78804
G1 X-15.600 Y-15.200 F7800.000
G1 F1800.000 E62.68804
G92 E0
G1 Z0.950 F7800.000
G1 X16.500 Y-16.500 F7800.000
G1 E1.10000 F1800.000
G1 X16.500 Y-23.500 E1.44923 F1800.000
G1 X23.500 Y-23.500 E1.79846
G1 X23.500 Y-16.500 E2.14769
G1 X16.560 Y-16.500 E2.49393
G1 X16.900 Y-16.900 F7800.000
G1 X16.900 Y-23.100 E2.80325 F1800.000
G1 X23.100 Y-23.100 E3.11257
G1 X23.100 Y-16.900 E3.42189
G1 X16.960 Y-16.900 E3.72822
G1 X17.300 Y-17.300 F7800.000
G1 X17.300 Y-22.700 E3.99762 F1260.000
G1 X22.700 Y-22.700 E4.26703
G1 X22.700 Y-17.300 E4.53644
G1 X17.360 Y-17.300 E4.80285
G1 X16.900 Y-17.300 F7800.000
G1 X16.000 Y-16.500 F7800.000
G1 X-16.000 Y-16.500 E6.39934 F1800.000
G1 X-16.000 Y-23.500 E6.74857
G1 X16.000 Y-23.500 E8.34506
G1 X16.000 Y-16.560 E8.69129
G1 X15.600 Y-16.900 F7800.000
G1 X-15.600 Y-16.900 E10.24787 F1800.000
G1 X-15.600 Y-23.100 E10.55719
G1 X15.600 Y-23.100 E12.11376
G1 X15.600 Y-16.960 E12.42009
G1 X15.200 Y-17.300 F7800.000
G1 X-15.200 Y-17.300 E13.93675 F1260.000
G1 X-15.200 Y-22.700 E14.20616
G1 X15.200 Y-22.700 E15.72282
G1 X15.200 Y-17.360 E15.98923
G1 X15.200 Y-16.900 F7800.000
G1 X-16.500 Y-16.500 F7800.000
G1 X-23.500 Y-16.500 E16.33846 F1800.000
G1 X-23.500 Y-23.500 E16.68770
G1 X-16.500 Y-23.500 E17.03693
G1 X-16.500 Y-16.560 E17.38317
G1 X-16.900 Y-16.900 F7800.000
G1 X-23.100 Y-16.900 E17.69248 F1800.000
G1 X-23.100 Y-23.100 E18.00180
G1 X-16.900 Y-23.100 E18.31112
G1 X-16.900 Y-16.960 E18.61745
G1 X-17.300 Y-17.300 F7800.000
G1 X-22.700 Y-17.300 E18.88686 F1260.000
G1 X-22.700 Y-22.700 E19.15626
G1 X-17.300 Y-22.700 E19.42567
G1 X-17.300 Y-17.360 E19.69208
G1 X-17.300 Y-16.900 F7800.000
G1 X-16.500 Y-16.000 F7800.000
G1 X-16.500 Y16.000 E21.28857 F1800.000
G1 X-23.500 Y16.000 E21.63780
G1 X-23.500 Y-16.000 E23.23429
G1 X-16.560 Y-16.000 E23.58053
G1 X-16.900 Y-15.600 F7800.000
G1 X-16.900 Y15.600 E25.13710 F1800.000
G1 X-23.100 Y15.600 E25.44642
G1 X-23.100 Y-15.600 E27.00299
G1 X-16.960 Y-15.600 E27.30932
G1 X-17.300 Y-15.200 F7800.000
G1 X-17.300 Y15.200 E28.82598 F1260.000
G1 X-22.700 Y15.200 E29.09539
G1 X-22.700 Y-15.200 E30.61205
G1 X-17.360 Y-15.200 E30.87847
G1 X-16.900 Y-15.200 F7800.000
G1 X-16.500 Y16.500 F7800.000
G1 X-16.500 Y23.500 E31.22770 F1800.000
G1 X-23.500 Y23.500 E31.57693
G1 X-23.500 Y16.500 E31.92616
G1 X-16.560 Y16.500 E32.27240
G1 X-16.900 Y16.900 F7800.000
G1 X-16.900 Y23.100 E32.58172 F1800.000
G1 X-23.100 Y23.100 E32.89104
G1 X-23.100 Y16.900 E33.20036
G1 X-16.960 Y16.900 E33.50668
G1 X-17.300 Y17.300 F7800.000
G1 X-17.300 Y22.700 E33.77609 F1260.000
G1 X-22.700 Y22.700 E34.04550
G1 X-22.700 Y17.300 E34.31490
G1 X-17.360 Y17.300 E34.58132
G1 X-16.900 Y17.300 F7800.000
G1 X-16.000 Y-16.000 F7800.000
G1 X-16.000 Y24.000 E36.57692 F1800.000
G1 X-24.000 Y24.000 E36.97605
G1 X-24.000 Y-24.000 E39.37078
G1 X24.000 Y-24.000 E41.76551
G1 X24.000 Y-16.000 E42.16463
G1 X-15.940 Y-16.000 E44.15724
G1 X-15.600 Y-15.600 F7800.000
G1 X-15.600 Y24.400 E46.15285 F1800.000
G1 X-24.400 Y24.400 E46.59188
G1 X-24.400 Y-24.400 E49.02653
G1 X24.400 Y-24.400 E51.46117
G1 X24.400 Y-15.600 E51.90020
G1 X-15.540 Y-15.600 E53.89282
G1 X-15.200 Y-15.200 F7800.000
G1 X-15.200 Y24.800 E55.88843 F1260.000
G1 X-24.800 Y24.800 E56.36737
G1 X-24.800 Y-24.800 E58.84193
G1 X24.800 Y-24.800 E61.31648
G1 X24.800 Y-15.200 E61.79543
G1 X-15.140 Y-15.200 E63.78804
G1 X-15.600 Y-15.200 F7800.000
G1 F1800.000 E62.68804
G92 E0
G1 Z1.250 F7800.000
G1 X16.500 Y-16.500 F7800.000
G1 E1.10000 F1800.000
G1 X16.500 Y-23.500 E1.44923 F1800.000
G1 X23.500 Y-23.500 E1.79846
G1 X23.500 Y-16.500 E2.14769
G1 X16.560 Y-16.500 E2.49393
G1 X16.900 Y-16.900 F7800.000
G1 X16.900 Y-23.100 E2.80325 F1800.000
G1 X23.100 Y-23.100 E3.11257
G1 X23.100 Y-16.900 E3.42189
G1 X16.960 Y-16.900 E3.72822
G1 X17.300 Y-17.300 F7800.000
G1 X17.300 Y-22.700 E3.99762 F1260.000
G1 X22.700 Y-22.700 E4.26703
G1 X22.700 Y-17.300 E4.53644
G1 X17.360 Y-17.300 E4.80285
G1 X16.900 Y-17.300 F7800.000
G1 X16.000 Y-16.500 F7800.000
G1 X-16.000 Y-16.500 E6.39934 F1800.000
G1 X-16.000 Y-23.500 E6.74857
G1 X16.000 Y-23.500 E8.34506
G1 X16.000 Y-16.560 E8.69129
G1 X15.600 Y-16.900 F7800.000
G1 X-15.600 Y-16.900 E10.24787 F1800.000
G1 X-15.600 Y-23.100 E10.55719
G1 X15.600 Y-23.100 E12.11376
G1 X15.600 Y-16.960 E12.42009
G1 X15.200 Y-17.300 F7800.000
G1 X-15.200 Y-17.300 E13.93675 F1260.000
G1 X-15.200 Y-22.700 E14.20616
G1 X15.200 Y-22.700 E15.72282
G1 X15.200 Y-17.360 E15.98923
G1 X15.200 Y-16.900 F7800.000
G1 X-16.500 Y-16.500 F7800.000
G1 X-23.500 Y-16.500 E16.33846 F1800.000
G1 X-23.500 Y-23.500 E16.68770
G1 X-16.500 Y-23.500 E17.03693
G1 X-16.500 Y-16.560 E17.38317
G1 X-16.900 Y-16.900 F7800.000
G1 X-23.100 Y-16.900 E17.69248 F1800.000
G1 X-23.100 Y-23.100 E18.00180
G1 X-16.900 Y-23.100 E18.31112
G1 X-16.900 Y-16.960 E18.61745
G1 X-17.300 Y-17.300 F7800.000
G1 X-22.700 Y-17.300 E18.88686 F1260.000
G1 X-22.700 Y-22.700 E19.15626
G1 X-17.300 Y-22.700 E19.42567
G1 X-17.300 Y-17.360 E19.69208
G1 X-17.300 Y-16.900 F7800.000
G1 X-16.500 Y-16.000 F7800.000
G1 X-16.500 Y16.000 E21.28857 F1800.000
G1 X-23.500 Y16.000 E21.63780
G1 X-23.500 Y-16.000 E23.23429
G1 X-16.560 Y-16.000 E23.58053
G1 X-16.900 Y-15.600 F7800.000
G1 X-16.900 Y15.600 E25.13710 F1800.000
G1 X-23.100 Y15.600 E25.44642
G1 X-23.100 Y-15.600 E27.00299
G1 X-16.960 Y-15.600 E27.30932
G1 X-17.300 Y-15.200 F7800.000
G1 X-17.300 Y15.200 E28.82598 F1260.000
G1 X-22.700 Y15.200 E29.09539
G1 X-22.700 Y-15.200 E30.61205
G1 X-17.360 Y-15.200 E30.87847
G1 X-16.900 Y-15.200 F7800.000
G1 X-16.500 Y16.500 F7800.000
G1 X-16.500 Y23.500 E31.22770 F1800.000
G1 X-23.500 Y23.500 E31.57693
G1 X-23.500 Y16.500 E31.92616
G1 X-16.560 Y16.500 E32.27240
G1 X-16.900 Y16.900 F7800.000
G1 X-16.900 Y23.100 E32.58172 F1800.000
G1 X-23.100 Y23.100 E32.89104
G1 X-23.100 Y16.900 E33.20036
G1 X-16.960 Y16.900 E33.50668
G1 X-17.300 Y17.300 F7800.000
G1 X-17.300 Y22.700 E33.77609 F1260.000
G1 X-22.700 Y22.700 E34.04550
G1 X-22.700 Y17.300 E34.31490
G1 X-17.360 Y17.300 E34.58132
G1 X-16.900 Y17.300 F7800.000
G1 X-16.000 Y-16.000 F7800.000
G1 X-16.000 Y24.000 E36.57692 F1800.000
G1 X-24.000 Y24.000 E36.97605
G1 X-24.000 Y-24.000 E39.37078
G1 X24.000 Y-24.000 E41.76551
G1 X24.000 Y-16.000 E42.16463
G1 X-15.940 Y-16.000 E44.15724
G1 X-15.600 Y-15.600 F7800.000
G1 X-15.600 Y24.400 E46.15285 F1800.000
G1 X-24.400 Y24.400 E46.59188
G1 X-24.400 Y-24.400 E49.02653
G1 X24.400 Y-24.400 E51.46117
G1 X24.400 Y-15.600 E51.90020
G1 X-15.540 Y-15.600 E53.89282
G1 X-15.200 Y-15.200 F7800.000
G1 X-15.200 Y24.800 E55.88843 F1260.000
G1 X-24.800 Y24.800 E56.36737
G1 X-24.800 Y-24.800 E58.84193
G1 X24.800 Y-24.800 E61.31648
G1 X24.800 Y-15.200 E61.79543
G1 X-15.140 Y-15.200 E63.78804
G1 X-15.600 Y-15.200 F7800.000
G1 F1800.000 E62.68804
G92 E0
G1 Z1.550 F7800.000
G1 X16.500 Y-16.500 F7800.000
G1 E1.10000 F1800.000
G1 X16.500 Y-23.500 E1.44923 F1800.000
G1 X23.500 Y-23.500 E1.79846
G1 X23.500 Y-16.500 E2.14769
G1 X16.560 Y-16.500 E2.49393
G1 X16.900 Y-16.900 F7800.000
G1 X16.900 Y-23.100 E2.80325 F1800.000
G1 X23.100 Y-23.100 E3.11257
G1 X23.100 Y-16.900 E3.42189
G1 X16.960 Y-16.900 E3.72822
G1 X17.300 Y-17.300 F7800.000
G1 X17.300 Y-22.700 E3.99762 F1260.000
G1 X22.700 Y-22.700 E4.26703
G1 X22.700 Y-17.300 E4.53644
G1 X17.360 Y-17.300 E4.80285
G1 X16.900 Y-17.300 F7800.000
G1 X16.000 Y-16.500 F7800.000
G1 X-16.000 Y-16.500 E6.39934 F1800.000
G1 X-16.000 Y-23.500 E6.74857
G1 X16.000 Y-23.500 E8.34506
G1 X16.000 Y-16.560 E8.69129
G1 X15.600 Y-16.900 F7800.000
G1 X-15.600 Y-16.900 E10.24787 F1800.000
G1 X-15.600 Y-23.100 E10.55719
G1 X15.600 Y-23.100 E12.11376
G1 X15.600 Y-16.960 E12.42009
G1 X15.200 Y-17.300 F7800.000
G1 X-15.200 Y-17.300 E13.93675 F1260.000
G1 X-15.200 Y-22.700 E14.20616
G1 X15.200 Y-22.700 E15.72282
G1 X15.200 Y-17.360 E15.98923
G1 X15.200 Y-16.900 F7800.000
G1 X-16.500 Y-16.500 F7800.000
G1 X-23.500 Y-16.500 E16.33846 F1800.000
G1 X-23.500 Y-23.500 E16.68770
G1 X-16.500 Y-23.500 E17.03693
G1 X-16.500 Y-16.560 E17.38317
G1 X-16.900 Y-16.900 F7800.000
G1 X-23.100 Y-16.900 E17.69248 F1800.000
G1 X-23.100 Y-23.100 E18.00180
G1 X-16.900 Y-23.100 E18.31112
G1 X-16.900 Y-16.960 E18.61745
G1 X-17.300 Y-17.300 F7800.000
