; generated by Slic3r 1.1.7 on 2014-08-24 at 15:23:56

; perimeters extrusion width = 0.50mm
; infill extrusion width = 0.52mm
; solid infill extrusion width = 0.52mm
; top infill extrusion width = 0.52mm

G21 ; set units to millimeters
M107
M104 S200 ; set temperature
G28 ; home all axes
G1 Z5 F5000 ; lift nozzle

M109 S200 ; wait for temperature to be reached
G90 ; use absolute coordinates
G92 E0
M82 ; use absolute distances for extrusion
G1 F1800.000 E-1.00000
G92 E0
G1 Z0.350 F7800.000
G1 X69.884 Y70.741 F7800.000
G1 E1.00000 F1800.000
G1 X71.637 Y69.255 E1.07480 F1080.000
G1 X73.792 Y68.453 E1.14960
G1 X75.000 Y68.343 E1.18906
G1 X125.000 Y68.343 E2.81582
G1 X127.265 Y68.740 E2.89062
G1 X129.259 Y69.884 E2.96542 F1080.000
G1 X130.745 Y71.637 E3.04022
G1 X131.547 Y73.792 E3.11502
G1 X131.657 Y75.000 E3.15447
G1 X131.657 Y85.000 E3.47982
G1 X131.260 Y87.265 E3.55462
G1 X129.707 Y89.707 E3.64880
G1 X89.707 Y129.707 E5.48927
G1 X87.825 Y131.028 E5.56407
G1 X85.000 Y131.657 E5.65824
G1 X75.000 Y131.657 E5.98359
G1 X72.735 Y131.260 E6.05839
G1 X70.741 Y130.116 E6.13319
G1 X69.255 Y128.363 E6.20799
G1 X68.453 Y126.208 E6.28280
G1 X68.343 Y125.000 E6.32225
G1 X68.343 Y75.000 E7.94901
G1 X68.740 Y72.735 E8.02381
G1 X69.846 Y70.806 E8.09617
G1 F1800.000 E7.09617
G92 E0
G1 X122.850 Y82.850 F7800.000
G1 E1.00000 F1800.000
G1 X117.150 Y82.850 E1.18545 F378.000
G1 X117.150 Y77.150 E1.37090
G1 X122.850 Y77.150 E1.55635
G1 X122.850 Y82.775 E1.73936
G1 X122.850 Y83.350 F7800.000
G1 X115.350 Y82.850 F7800.000
G1 X84.650 Y82.850 E2.73819 F378.000
G1 X84.650 Y77.150 E2.92364
G1 X115.350 Y77.150 E3.92248
G1 X115.350 Y82.775 E4.10549
G1 X115.350 Y83.350 F7800.000
G1 X82.850 Y82.850 F7800.000
G1 X77.150 Y82.850 E4.29094 F378.000
G1 X77.150 Y77.150 E4.47639
G1 X82.850 Y77.150 E4.66184
G1 X82.850 Y82.775 E4.84485
G1 X82.850 Y83.350 F7800.000
G1 X82.850 Y84.650 F7800.000
G1 X82.850 Y115.350 E5.84368 F378.000
G1 X77.150 Y115.350 E6.02913
G1 X77.150 Y84.650 E7.02796
G1 X82.775 Y84.650 E7.21097
G1 X83.350 Y84.650 F7800.000
G1 X82.850 Y117.150 F7800.000
G1 X82.850 Y122.850 E7.39642 F378.000
G1 X77.150 Y122.850 E7.58187
G1 X77.150 Y117.150 E7.76732
G1 X82.775 Y117.150 E7.95033
G1 X83.350 Y117.150 F7800.000
G1 X84.650 Y84.650 F7800.000
G1 X84.650 Y124.650 E9.25174 F378.000
G1 X75.350 Y124.650 E9.55432
G1 X75.350 Y75.350 E11.15831
G1 X124.650 Y75.350 E12.76229
G1 X124.650 Y84.650 E13.06487
G1 X84.725 Y84.650 E14.36384
G1 X84.150 Y84.650 F7800.000
G1 X83.750 Y82.436 F7800.000
G1 X83.750 Y115.679 E15.96851 F360.000
G1 X83.607 Y116.250 E15.99695
G1 X76.393 Y116.250 E16.34519
G1 X76.250 Y116.821 E16.37362
G1 X76.250 Y123.179 E16.68049
G1 X76.348 Y123.652 E16.70383
G1 X76.821 Y123.750 E16.72716
G1 X83.179 Y123.750 E17.03403
G1 X83.652 Y123.652 E17.05737
G1 X83.750 Y123.179 E17.08070
G1 X83.750 Y116.821 E17.38757
G1 X83.288 Y114.975 E17.47944
G1 X76.712 Y117.525 F7800.000
G1 X76.250 Y115.679 E17.57131 F360.000
G1 X76.250 Y84.321 E19.08496
G1 X76.393 Y83.750 E19.11339
G1 X85.064 Y83.750 E19.53197
G1 F1800.000 E18.53197
G92 E0
G1 X85.025 Y76.712 F7800.000
G1 E1.00000 F1800.000
G1 X83.179 Y76.250 E1.09187 F360.000
G1 X76.821 Y76.250 E1.39874
G1 X76.348 Y76.348 E1.42207
G1 X76.250 Y76.821 E1.44541
G1 X76.250 Y83.179 E1.75228
G1 X76.712 Y85.025 E1.84415
G1 X116.250 Y83.607 F7800.000
G1 X116.250 Y76.393 E2.19239 F360.000
G1 X116.821 Y76.250 E2.22082
G1 X123.179 Y76.250 E2.52769
G1 X123.652 Y76.348 E2.55103
G1 X123.750 Y76.821 E2.57436
G1 X123.750 Y83.179 E2.88123
G1 X123.652 Y83.652 E2.90457
G1 X123.179 Y83.750 E2.92790
G1 X116.821 Y83.750 E3.23477
G1 X116.323 Y83.625 E3.25958
G1 X117.525 Y83.288 F7800.000
G1 X115.679 Y83.750 E3.35145 F360.000
G1 X83.750 Y83.750 E4.89269
G1 X83.750 Y76.393 E5.24783
G1 X84.321 Y76.250 E5.27626
G1 X115.679 Y76.250 E6.78992
G1 X117.525 Y76.712 E6.88179
M106 S173
G1 F1800.000 E5.88179
G92 E0
G1 Z0.750 F7800.000
G1 X116.750 Y83.250 F7800.000
G1 E1.00000 F1800.000
G1 X116.750 Y76.750 E1.18391 F1800.000
G1 X123.250 Y76.750 E1.36782
G1 X123.250 Y83.250 E1.55174
G1 X116.825 Y83.250 E1.73353
G1 X117.250 Y82.750 F7800.000
G1 X117.250 Y77.250 E1.88915 F1260.000
G1 X122.750 Y77.250 E2.04476
G1 X122.750 Y82.750 E2.20038
G1 X117.325 Y82.750 E2.35388
G1 X116.750 Y82.750 F7800.000
G1 X115.750 Y83.250 F7800.000
G1 X84.250 Y83.250 E3.24515 F1800.000
G1 X84.250 Y76.750 E3.42906
G1 X115.750 Y76.750 E4.32033
G1 X115.750 Y83.175 E4.50212
G1 X115.250 Y82.750 F7800.000
G1 X84.750 Y82.750 E5.36509 F1260.000
G1 X84.750 Y77.250 E5.52071
G1 X115.250 Y77.250 E6.38368
G1 X115.250 Y82.675 E6.53718
G1 X115.250 Y83.250 F7800.000
G1 X83.250 Y83.250 F7800.000
G1 X76.750 Y83.250 E6.72109 F1800.000
G1 X76.750 Y76.750 E6.90500
G1 X83.250 Y76.750 E7.08891
G1 X83.250 Y83.175 E7.27070
G1 X82.750 Y82.750 F7800.000
G1 X77.250 Y82.750 E7.42632 F1260.000
G1 X77.250 Y77.250 E7.58194
G1 X82.750 Y77.250 E7.73756
G1 X82.750 Y82.675 E7.89106
G1 X82.750 Y83.250 F7800.000
G1 X83.250 Y84.250 F7800.000
G1 X83.250 Y115.750 E8.78232 F1800.000
G1 X76.750 Y115.750 E8.96624
G1 X76.750 Y84.250 E9.85750
G1 X83.175 Y84.250 E10.03929
G1 X82.750 Y84.750 F7800.000
G1 X82.750 Y115.250 E10.90227 F1260.000
G1 X77.250 Y115.250 E11.05789
G1 X77.250 Y84.750 E11.92086
G1 X82.675 Y84.750 E12.07435
G1 X83.250 Y84.750 F7800.000
G1 X83.250 Y116.750 F7800.000
G1 X83.250 Y123.250 E12.25827 F1800.000
G1 X76.750 Y123.250 E12.44218
G1 X76.750 Y116.750 E12.62609
G1 X83.175 Y116.750 E12.80788
G1 X82.750 Y117.250 F7800.000
G1 X82.750 Y122.750 E12.96350 F1260.000
G1 X77.250 Y122.750 E13.11912
G1 X77.250 Y117.250 E13.27474
G1 X82.675 Y117.250 E13.42823
G1 X83.250 Y117.250 F7800.000
G1 X84.250 Y84.250 F7800.000
G1 X84.250 Y124.250 E14.56000 F1800.000
G1 X75.750 Y124.250 E14.80050
G1 X75.750 Y75.750 E16.17277
G1 X124.250 Y75.750 E17.54504
G1 X124.250 Y84.250 E17.78554
G1 X84.325 Y84.250 E18.91519
G1 X84.750 Y84.750 F7800.000
G1 X84.750 Y124.750 E20.04696 F1260.000
G1 X75.250 Y124.750 E20.31575
G1 X75.250 Y75.250 E21.71632
G1 X124.750 Y75.250 E23.11688
G1 X124.750 Y84.750 E23.38567
G1 X84.825 Y84.750 E24.51532
G1 X84.250 Y84.750 F7800.000
G1 X83.750 Y83.250 F7800.000
G1 X83.750 Y116.000 E25.07807 F1200.000
G1 X83.688 Y116.250 E25.08249
G1 X76.312 Y116.250 E25.20922
G1 X76.250 Y116.500 E25.21365
G1 X76.250 Y123.500 E25.33393
G1 X76.293 Y123.707 E25.33756
G1 X76.500 Y123.750 E25.34120
G1 X83.500 Y123.750 E25.46148
G1 X83.707 Y123.707 E25.46511
G1 X83.750 Y123.500 E25.46875
G1 X83.750 Y116.500 E25.58903
G1 X83.566 Y115.765 E25.60205
G1 X76.434 Y116.735 F7800.000
G1 X76.250 Y116.000 E25.61507 F1200.000
G1 X76.250 Y84.000 E26.16493
G1 X76.312 Y83.750 E26.16936
G1 X84.250 Y83.750 E26.30575
G1 X84.235 Y76.434 F7800.000
G1 X83.500 Y76.250 E26.31877 F1200.000
G1 X76.500 Y76.250 E26.43905
G1 X76.293 Y76.293 E26.44268
G1 X76.250 Y76.500 E26.44632
G1 X76.250 Y83.500 E26.56660
G1 X76.434 Y84.235 E26.57962
G1 X116.735 Y83.566 F7800.000
G1 X116.000 Y83.750 E26.59264 F1200.000
G1 X83.750 Y83.750 E27.14679
G1 X83.750 Y76.312 E27.27459
G1 X84.000 Y76.250 E27.27902
G1 X116.000 Y76.250 E27.82888
G1 X116.735 Y76.434 E27.84190
G1 X116.250 Y83.688 F7800.000
G1 X116.250 Y76.312 E27.96862 F1200.000
G1 X116.500 Y76.250 E27.97305
G1 X123.500 Y76.250 E28.09333
G1 X123.707 Y76.293 E28.09697
G1 X123.750 Y76.500 E28.10060
G1 X123.750 Y83.500 E28.22088
G1 X123.707 Y83.707 E28.22452
G1 X123.500 Y83.750 E28.22815
G1 X116.500 Y83.750 E28.34843
G1 X116.323 Y83.706 E28.35157
G1 F1800.000 E27.35157
G92 E0
G1 Z1.150 F7800.000
G1 X116.750 Y83.250 F7800.000
G1 E1.00000 F1800.000
G1 X116.750 Y76.750 E1.18391 F1800.000
G1 X123.250 Y76.750 E1.36782
G1 X123.250 Y83.250 E1.55174
G1 X116.825 Y83.250 E1.73353
G1 X117.250 Y82.750 F7800.000
G1 X117.250 Y77.250 E1.88915 F1260.000
G1 X122.750 Y77.250 E2.04476
G1 X122.750 Y82.750 E2.20038
G1 X117.325 Y82.750 E2.35388
G1 X116.750 Y82.750 F7800.000
G1 X115.750 Y83.250 F7800.000
G1 X84.250 Y83.250 E3.24515 F1800.000
G1 X84.250 Y76.750 E3.42906
G1 X115.750 Y76.750 E4.32033
G1 X115.750 Y83.175 E4.50212
G1 X115.250 Y82.750 F7800.000
G1 X84.750 Y82.750 E5.36509 F1260.000
G1 X84.750 Y77.250 E5.52071
G1 X115.250 Y77.250 E6.38368
G1 X115.250 Y82.675 E6.53718
G1 X115.250 Y83.250 F7800.000
G1 X83.250 Y83.250 F7800.000
G1 X76.750 Y83.250 E6.72109 F1800.000
G1 X76.750 Y76.750 E6.90500
G1 X83.250 Y76.750 E7.08891
G1 X83.250 Y83.175 E7.27070
G1 X82.750 Y82.750 F7800.000
G1 X77.250 Y82.750 E7.42632 F1260.000
G1 X77.250 Y77.250 E7.58194
G1 X82.750 Y77.250 E7.73756
G1 X82.750 Y82.675 E7.89106
G1 X82.750 Y83.250 F7800.000
G1 X83.250 Y84.250 F7800.000
G1 X83.250 Y115.750 E8.78232 F1800.000
G1 X76.750 Y115.750 E8.96624
G1 X76.750 Y84.250 E9.85750
G1 X83.175 Y84.250 E10.03929
G1 X82.750 Y84.750 F7800.000
G1 X82.750 Y115.250 E10.90227 F1260.000
G1 X77.250 Y115.250 E11.05789
G1 X77.250 Y84.750 E11.92086
G1 X82.675 Y84.750 E12.07435
G1 X83.250 Y84.750 F7800.000
G1 X83.250 Y116.750 F7800.000
G1 X83.250 Y123.250 E12.25827 F1800.000
G1 X76.750 Y123.250 E12.44218
G1 X76.750 Y116.750 E12.62609
G1 X83.175 Y116.750 E12.80788
G1 X82.750 Y117.250 F7800.000
G1 X82.750 Y122.750 E12.96350 F1260.000
G1 X77.250 Y122.750 E13.11912
G1 X77.250 Y117.250 E13.27474
G1 X82.675 Y117.250 E13.42823
G1 X83.250 Y117.250 F7800.000
G1 X84.250 Y84.250 F7800.000
G1 X84.250 Y124.250 E14.56000 F1800.000
G1 X75.750 Y124.250 E14.80050
G1 X75.750 Y75.750 E16.17277
G1 X124.250 Y75.750 E17.54504
G1 X124.250 Y84.250 E17.78554
G1 X84.325 Y84.250 E18.91519
G1 X84.750 Y84.750 F7800.000
G1 X84.750 Y124.750 E20.04696 F1260.000
G1 X75.250 Y124.750 E20.31575
G1 X75.250 Y75.250 E21.71632
G1 X124.750 Y75.250 E23.11688
G1 X124.750 Y84.750 E23.38567
G1 X84.825 Y84.750 E24.51532
G1 X84.250 Y84.750 F7800.000
G1 X83.750 Y83.250 F7800.000
G1 X83.750 Y116.000 E25.07807 F1200.000
G1 X83.688 Y116.250 E25.08249
G1 X76.312 Y116.250 E25.20922
G1 X76.250 Y116.500 E25.21365
G1 X76.250 Y123.500 E25.33393
G1 X76.293 Y123.707 E25.33756
G1 X76.500 Y123.750 E25.34120
G1 X83.500 Y123.750 E25.46148
G1 X83.707 Y123.707 E25.46511
G1 X83.750 Y123.500 E25.46875
G1 X83.750 Y116.500 E25.58903
G1 X83.566 Y115.765 E25.60205
G1 X76.434 Y116.735 F7800.000
G1 X76.250 Y116.000 E25.61507 F1200.000
G1 X76.250 Y84.000 E26.16493
G1 X76.312 Y83.750 E26.16936
G1 X84.250 Y83.750 E26.30575
G1 X84.235 Y76.434 F7800.000
G1 X83.500 Y76.250 E26.31877 F1200.000
G1 X76.500 Y76.250 E26.43905
G1 X76.293 Y76.293 E26.44268
G1 X76.250 Y76.500 E26.44632
G1 X76.250 Y83.500 E26.56660
G1 X76.434 Y84.235 E26.57962
G1 X116.735 Y83.566 F7800.000
G1 X116.000 Y83.750 E26.59264 F1200.000
G1 X83.750 Y83.750 E27.14679
G1 X83.750 Y76.312 E27.27459
G1 X84.000 Y76.250 E27.27902
G1 X116.000 Y76.250 E27.82888
G1 X116.735 Y76.434 E27.84190
G1 X116.250 Y83.688 F7800.000
G1 X116.250 Y76.312 E27.96862 F1200.000
G1 X116.500 Y76.250 E27.97305
G1 X123.500 Y76.250 E28.09333
G1 X123.707 Y76.293 E28.09697
G1 X123.750 Y76.500 E28.10060
G1 X123.750 Y83.500 E28.22088
G1 X123.707 Y83.707 E28.22452
G1 X123.500 Y83.750 E28.22815
G1 X116.500 Y83.750 E28.34843
G1 X116.323 Y83.706 E28.35157
G1 F1800.000 E27.35157
G92 E0
G1 Z1.550 F7800.000
G1 X116.750 Y83.250 F7800.000
G1 E1.00000 F1800.000
G1 X116.750 Y76.750 E1.18391 F1800.000
G1 X123.250 Y76.750 E1.36782
G1 X123.250 Y83.250 E1.55174
G1 X116.825 Y83.250 E1.73353
G1 X117.250 Y82.750 F7800.000
G1 X117.250 Y77.250 E1.88915 F1260.000
G1 X122.750 Y77.250 E2.04476
G1 X122.750 Y82.750 E2.20038
G1 X117.325 Y82.750 E2.35388
G1 X116.750 Y82.750 F7800.000
G1 X115.750 Y83.250 F7800.000
G1 X84.250 Y83.250 E3.24515 F1800.000
G1 X84.250 Y76.750 E3.42906
G1 X115.750 Y76.750 E4.32033
G1 X115.750 Y83.175 E4.50212
G1 X115.250 Y82.750 F7800.000
G1 X84.750 Y82.750 E5.36509 F1260.000
G1 X84.750 Y77.250 E5.52071
G1 X115.250 Y77.250 E6.38368
G1 X115.250 Y82.675 E6.53718
G1 X115.250 Y83.250 F7800.000
G1 X83.250 Y83.250 F7800.000
G1 X76.750 Y83.250 E6.72109 F1800.000
G1 X76.750 Y76.750 E6.90500
G1 X83.250 Y76.750 E7.08891
G1 X83.250 Y83.175 E7.27070
G1 X82.750 Y82.750 F7800.000
G1 X77.250 Y82.750 E7.42632 F1260.000
G1 X77.250 Y77.250 E7.58194
G1 X82.750 Y77.250 E7.73756
G1 X82.750 Y82.675 E7.89106
G1 X82.750 Y83.250 F7800.000
G1 X83.250 Y84.250 F7800.000
G1 X83.250 Y115.750 E8.78232 F1800.000
G1 X76.750 Y115.750 E8.96624
G1 X76.750 Y84.250 E9.85750
G1 X83.175 Y84.250 E10.03929
G1 X82.750 Y84.750 F7800.000
G1 X82.750 Y115.250 E10.90227 F1260.000
G1 X77.250 Y115.250 E11.05789
G1 X77.250 Y84.750 E11.92086
G1 X82.675 Y84.750 E12.07435
G1 X83.250 Y84.750 F7800.000
G1 X83.250 Y116.750 F7800.000
G1 X83.250 Y123.250 E12.25827 F1800.000
G1 X76.750 Y123.250 E12.44218
G1 X76.750 Y116.750 E12.62609
G1 X83.175 Y116.750 E12.80788
G1 X82.750 Y117.250 F7800.000
G1 X82.750 Y122.750 E12.96350 F1260.000
G1 X77.250 Y122.750 E13.11912
G1 X77.250 Y117.250 E13.27474
G1 X82.675 Y117.250 E13.42823
G1 X83.250 Y117.250 F7800.000
G1 X84.250 Y84.250 F7800.000
G1 X84.250 Y124.250 E14.56000 F1800.000
G1 X75.750 Y124.250 E14.80050
G1 X75.750 Y75.750 E16.17277
G1 X124.250 Y75.750 E17.54504
G1 X124.250 Y84.250 E17.78554
G1 X84.325 Y84.250 E18.91519
G1 X84.750 Y84.750 F7800.000
G1 X84.750 Y124.750 E20.04696 F1260.000
G1 X75.250 Y124.750 E20.31575
G1 X75.250 Y75.250 E21.71632
G1 X124.750 Y75.250 E23.11688
G1 X124.750 Y84.750 E23.38567
G1 X84.825 Y84.750 E24.51532
G1 X84.250 Y84.750 F7800.000
G1 X83.750 Y83.250 F7800.000
G1 X83.750 Y116.000 E25.07807 F1200.000
G1 X83.688 Y116.250 E25.08249
G1 X76.312 Y116.250 E25.20922
G1 X76.250 Y116.500 E25.21365
G1 X76.250 Y123.500 E25.33393
G1 X76.293 Y123.707 E25.33756
G1 X76.500 Y123.750 E25.34120
G1 X83.500 Y123.750 E25.46148
G1 X83.707 Y123.707 E25.46511
G1 X83.750 Y123.500 E25.46875
G1 X83.750 Y116.500 E25.58903
G1 X83.566 Y115.765 E25.60205
G1 X76.434 Y116.735 F7800.000
G1 X76.250 Y116.000 E25.61507 F1200.000
G1 X76.250 Y84.000 E26.16493
G1 X76.312 Y83.750 E26.16936
G1 X84.250 Y83.750 E26.30575
G1 X84.235 Y76.434 F7800.000
G1 X83.500 Y76.250 E26.31877 F1200.000
G1 X76.500 Y76.250 E26.43905
G1 X76.293 Y76.293 E26.44268
G1 X76.250 Y76.500 E26.44632
G1 X76.250 Y83.500 E26.56660
G1 X76.434 Y84.235 E26.57962
G1 X116.735 Y83.566 F7800.000
G1 X116.000 Y83.750 E26.59264 F1200.000
G1 X83.750 Y83.750 E27.14679
G1 X83.750 Y76.312 E27.27459
G1 X84.000 Y76.250 E27.27902
G1 X116.000 Y76.250 E27.82888
G1 X116.735 Y76.434 E27.84190
G1 X116.250 Y83.688 F7800.000
G1 X116.250 Y76.312 E27.96862 F1200.000
G1 X116.500 Y76.250 E27.97305
G1 X123.500 Y76.250 E28.09333
G1 X123.707 Y76.293 E28.09697
G1 X123.750 Y76.500 E28.10060
G1 X123.750 Y83.500 E28.22088
G1 X123.707 Y83.707 E28.22452
G1 X123.500 Y83.750 E28.22815
G1 X116.500 Y83.750 E28.34843
G1 X116.323 Y83.706 E28.35157
G1 F1800.000 E27.35157
G92 E0
G1 Z1.950 F7800.000
G1 X116.750 Y83.250 F7800.000
G1 E1.00000 F1800.000
G1 X116.750 Y76.750 E1.18391 F1800.000
G1 X123.250 Y76.750 E1.36782
G1 X123.250 Y83.250 E1.55174
G1 X116.825 Y83.250 E1.73353
G1 X117.250 Y82.750 F7800.000
G1 X117.250 Y77.250 E1.88915 F1260.000
G1 X122.750 Y77.250 E2.04476
G1 X122.750 Y82.750 E2.20038
G1 X117.325 Y82.750 E2.35388
G1 X116.750 Y82.750 F7800.000
G1 X115.750 Y83.250 F7800.000
G1 X84.250 Y83.250 E3.24515 F1800.000
G1 X84.250 Y76.750 E3.42906
G1 X115.750 Y76.750 E4.32033
G1 X115.750 Y83.175 E4.50212
G1 X115.250 Y82.750 F7800.000
G1 X84.750 Y82.750 E5.36509 F1260.000
G1 X84.750 Y77.250 E5.52071
G1 X115.250 Y77.250 E6.38368
G1 X115.250 Y82.675 E6.53718
G1 X115.250 Y83.250 F7800.000
G1 X83.250 Y83.250 F7800.000
G1 X76.750 Y83.250 E6.72109 F1800.000
G1 X76.750 Y76.750 E6.90500
G1 X83.250 Y76.750 E7.08891
G1 X83.250 Y83.175 E7.27070
G1 X82.750 Y82.750 F7800.000
G1 X77.250 Y82.750 E7.42632 F1260.000
G1 X77.250 Y77.250 E7.58194
G1 X82.750 Y77.250 E7.73756
G1 X82.750 Y82.675 E7.89106
G1 X82.750 Y83.250 F7800.000
G1 X83.250 Y84.250 F7800.000
G1 X83.250 Y115.750 E8.78232 F1800.000
G1 X76.750 Y115.750 E8.96624
G1 X76.750 Y84.250 E9.85750
G1 X83.175 Y84.250 E10.03929
G1 X82.750 Y84.750 F7800.000
G1 X82.750 Y115.250 E10.90227 F1260.000
G1 X77.250 Y115.250 E11.05789
G1 X77.250 Y84.750 E11.92086
G1 X82.675 Y84.750 E12.07435
G1 X83.250 Y84.750 F7800.000
G1 X83.250 Y116.750 F7800.000
